fs/search_settings_20_filled.svg

<svg viewBox="0 0 20 20" fill="none" xmlns="http://www.w3.org/2000/svg" height="1em" width="1em">
  <path d="M8.49951 3C11.5371 3 13.9995 5.46243 13.9995 8.5C13.9995 9.74832 13.5836 10.8995 12.8829 11.8226L17.0298 15.9697C17.3227 16.2626 17.3227 16.7374 17.0298 17.0303C16.7636 17.2966 16.3469 17.3208 16.0533 17.1029L15.9692 17.0303L11.8221 12.8834C11.5352 13.1011 11.2264 13.2914 10.8994 13.4502C10.8016 12.944 10.6344 12.4626 10.408 12.0162C11.6539 11.3385 12.4995 10.018 12.4995 8.5C12.4995 6.29086 10.7087 4.5 8.49951 4.5C6.29037 4.5 4.49951 6.29086 4.49951 8.5C4.49951 8.69806 4.51391 8.89276 4.54171 9.08311C4.03357 9.17234 3.54945 9.33133 3.09959 9.54983C3.03391 9.21 2.99951 8.85902 2.99951 8.5C2.99951 5.46243 5.46195 3 8.49951 3ZM3.06475 11.442C3.36804 12.5231 2.72204 13.642 1.63409 13.9199L1.17305 14.0377C1.15807 14.1896 1.15039 14.3438 1.15039 14.4999C1.15039 14.6875 1.16149 14.8725 1.18305 15.0541L1.53261 15.1368C2.65204 15.4014 3.31803 16.5536 2.98869 17.6557L2.86235 18.0785C3.11953 18.2817 3.39927 18.4559 3.697 18.5964L4.022 18.2523C4.81181 17.416 6.14257 17.4167 6.93151 18.2538L7.26887 18.6118C7.56129 18.4769 7.83666 18.3095 8.09073 18.1142L7.93458 17.5575C7.63129 16.4764 8.27729 15.3575 9.36524 15.0795L9.82578 14.9619C9.84075 14.81 9.84842 14.6559 9.84842 14.4999C9.84842 14.3121 9.83731 14.127 9.81572 13.9452L9.46672 13.8627C8.34728 13.598 7.6813 12.4459 8.01063 11.3438L8.13682 10.9215C7.8796 10.7182 7.59981 10.5439 7.30201 10.4034L6.97733 10.7472C6.18751 11.5835 4.85675 11.5828 4.06781 10.7457L3.73046 10.3877C3.43803 10.5226 3.16264 10.6899 2.90856 10.8852L3.06475 11.442ZM5.49941 15.4999C4.94713 15.4999 4.49941 15.0521 4.49941 14.4999C4.49941 13.9476 4.94713 13.4999 5.49941 13.4999C6.05169 13.4999 6.49941 13.9476 6.49941 14.4999C6.49941 15.0521 6.05169 15.4999 5.49941 15.4999Z" fill="#212121"/>
</svg>

<svg viewBox="0 0 20 20" fill="none" xmlns="http://www.w3.org/2000/svg" height="1em" width="1em">
  <path d="M8.5 3a5.5 5.5 0 0 1 4.383 8.823l4.147 4.147a.75.75 0 0 1-.977 1.133l-.084-.073-4.147-4.147a5.505 5.505 0 0 1-.923.567 5.457 5.457 0 0 0-.491-1.434 4 4 0 1 0-5.866-2.933A5.46 5.46 0 0 0 3.1 9.55 5.5 5.5 0 0 1 8.5 3Zm-5.435 8.442a2 2 0 0 1-1.43 2.478l-.462.118a4.709 4.709 0 0 0 .01 1.016l.35.083a2 2 0 0 1 1.456 2.519l-.127.422c.258.204.537.378.835.518l.325-.344a2 2 0 0 1 2.91.002l.337.358c.292-.135.568-.302.822-.498l-.156-.556a2 2 0 0 1 1.43-2.479l.46-.117a4.71 4.71 0 0 0-.01-1.017l-.348-.082a2 2 0 0 1-1.456-2.52l.126-.421a4.318 4.318 0 0 0-.835-.519l-.325.344a2 2 0 0 1-2.91-.001l-.337-.358a4.315 4.315 0 0 0-.821.497l.156.557ZM5.499 15.5a1 1 0 1 1 0-2 1 1 0 0 1 0 2Z" fill="#212121"/>
</svg>
